X: 27646
T: Mopsi Dôn
R: jig
M: 6/8
K: Cmajor
|:B>cd d2 e|d2 c dBG|c>dc efe|c>dc efe|
B>cd d2 e|d2 c B2 B|c>de f2 e|d>cB c3:|
|:geg fdf|ece dBG|c2 c e>dc|B2 c d3|
ge/f/g fd/e/f|ece d>BG|e>dc agf|efd c3:|

